!!!OTL: Yiwang yuxia yiwangliang
!!!ARE: Asia, China,ˇJiangxi Boyang
!! IV, 211
!!!SCT: C1794
!!!YEM: Copyright 1995, estate of Helmut Schaffrath.
**kern
*ICvox
*Ivox
*M2/4
*k[b-e-]
*B-:
{8ff
4ff
8gg
=1
8bb-
16fff
16ddd
[4ccc
=2
4.ccc]
16fff
16ddd
=3
8ddd
16ddd
16ccc
4bb-
=4
8gg
[4.ff
=5
2ff]}
=6
{8bb-
16bb-
16ddd
16ccc
16ddd
8bb-
=7
4.gg
8bb-
=8
8ff
4bb-
16gg
16bb-
=9
8gg
4.ff}
=10
{16dd
16cc
4dd
8ff
=11
16gg
16ff
4gg
16fff
16ddd
=12
16ccc
16ddd
4bb-
8gg
=13
2gg}
=14
{8bb-
16bb-
16ddd
16ccc
16ddd
[8bb-
=15
4.bb-]
8gg
=16
8dd
4bb-
16dd
16gg
=17
[2ff
=18
2ff]}
==
!!!AGN: Shange, YÅge
!!!AMT: simple duple
!!!AIN: vox
!!!EED: Helmut Schaffrath
!!!EEV: 1.0
*-
!!!ONB: Tied note syntax fixed by Craig Sapp, 2004/05/03/
